X:145
%%pagewidth 8.5in
%%vocalfont Baskerville10Pro 13
T:The cobbler's jigg
M:C
L:1/8
K:D
%%score 1 2
V:1 clef-treble
V:2 clef-bass octave=-1
V:1
d2d2c2e2&F4G4|B2B2A3A&G4A2[DF]2|B2B2[EAc]2A2&[DG]2[EG]2x4|
w:Cold's the wind, and wet's the rain, Saint Hugh be our good
V:2
[DA]4[EG]4|[GB]4[Fd]2D2|G2E2A3G|
V:1
d6A2&[DA]4x4|d2dd  cce2&F4G4|d2cB A2[DFA]2&[DG]4[DA]2x2|[DGB]2[EGB]2[EAc]2A2|[DFd]4||
w:speed;* Ill is the weather* that bring-eth no gain, Nor helps good hearts in need.
V:2
F3E D2z2|[DA]4[EG]4|B2AG F2D2|G2E2A2A2|D4||
V:1
"^Chorus."!ff![EA]4|[DFd]2[DA]2[DGB]2(AG)&x6[CE]2|F3G A2GF&D4D4|[DE]2[DF]2[DG]2[A,EA]2|[A,DF]3E (D2[E)A,C]2|
w:Hey down a down, hey* down a down, Hey* der-ry der-ry down a down.*
V:2
C4|B,2F,2G,2A,2|B,4F,4|G,2A,2B,2C2|D6A,2|
V:1
F3E D2E2&[A,D]4B,2B,2|F3E D2E2&[^A,C]4B,2C2|(FG)A2 E3D&D2D2D2C2|D8||
w:Ho! well done, To me let come, Ring com-*pass, gen-tle joy.
V:2
D,4G,2G,2|F,4B,2=A,2|D2F2A2A,2|D8||

